X: 7839
T: Coming Of Spring, The
R: jig
M: 6/8
K: Edorian
BEE B2 A|BdB BAG|FEF DFA|dfe dBA|
BEE B2 A|Bef gfe|dc/B/A FGA|BGE E2:|
GEF G2 A|B2 A Bec|dAA BAG|F3 DEF|
G2 E FGA|Bef gfe|dc/B/A FGA|BEE E2:|
g2 e eBe|geg bag|f2 d dcd|AFA def|
[1 g2 e eBe|geg bag|fed fg/a/f|ged e2:|
[2 g2 e fed|Bec dfe|dc/B/A FGA|BGE E2||

